X:7605
T:Tombalaika - Valssi
O:england
C:Trad 1, 57
M:3/4
L:1/4
K:C
E2E|E2E|EDC|B,2B,|\
D2D|D2D|DCB,|A,2A,|\
A,CE|A2A|cBA|E2E|\
GFD|B,2B,|DCB,|A,3:|


